src/trash.svg

<svg viewBox="0 0 16 16" fill="currentColor" xmlns="http://www.w3.org/2000/svg"><title>Trash can</title><path fill-rule="evenodd" clip-rule="evenodd" d="M11 1v2h3v1H2V3h3V1h6ZM6 3V2h4v1H6Z"/><path d="M13 5h-1v9H4V5H3v10h10V5Z"/><path d="M7 7v5H6V7h1ZM10 12V7H9v5h1Z"/></svg>

<svg viewBox="0 0 16 16" fill="none" xmlns="http://www.w3.org/2000/svg"><path fill-rule="evenodd" clip-rule="evenodd" d="M11 1V3H14V4H2V3H5V1H11ZM6 3V2H10V3H6Z" fill="#111111"/><path d="M13 5H12V14H4V5H3V15H13V5Z" fill="#111111"/><path d="M7 7V12H6V7H7Z" fill="#111111"/><path d="M10 12V7H9V12H10Z" fill="#111111"/></svg>
